!!!!SEGMENT: pl-kk--kk-i-382--033_handel-georg-friedrich--o-panie-zbaw.krn
!!!cenid: 18xx:1520
!!!COM: Händel, Georg Friedrich
!!!COM-rismid: pe36552
!!!CDT: 1685/02/23-1759/04/14
!!!CNT: German
!!!OTL: O Panie zbaw
!!!PDT:
!!!AGN: Sacred
!!!SMS-siglum: PL-Kk
!!!SMS-shelfmark: Kk.I.382
!!!SMS-shelfwork: 018 W
!!!SMS-variant:
!!!SMS-altvar:
!!!NIFC-rismid: 1001139501
!!!URL-scan: http://repozytorium.nifc.pl/skany/pl-kk-nut--i-382
!!!ONB-nifc: UWAGA: obsada: S/T1, T2, B2. Skan 0031-0032, 0102, 0250
!!!ONB-nifc: UWAGA: obsada: S (T 1), T 2, B 2; S (T 1): skan 0031-0032; T 2: skan 0102; B 2: skan 0250
!!!AIN: 1 alto 1 bass 2 tenor
!!!key:
**kern	**text	**kern	**text	**kern	**kern	**text
*part4	*part4	*part3	*part3	*part2	*part1	*part1
*staff4	*staff4	*staff3	*staff3	*staff2	*staff1	*staff1
*Ibass	*	*Itenor	*	*Ialto	*Itenor	*
*I"Basso II	*	*I"Tenore II	*	*I"Alto vel Basso I	*I"Soprano vel Tenore I.	*
*I'B 2	*	*I'T 2	*	*I'A (B 1)	*I'S (T 1)	*
*clefF4	*	*clefG2	*	*clefF4	*clefG2	*
*k[f#c#]	*	*k[f#c#]	*	*k[f#c#]	*k[f#c#]	*
*D:	*	*D:	*	*D:	*D:	*
*M3/4	*	*M3/4	*	*M3/4	*M3/4	*
=1	=1	=1	=1	=1	=1	=1
*2\right	*	*	*	*	*	*
!	!	!LO:TX:t=P:problem=2/left&colon; global	!	!	!LO:TX:t=P:problem=2/left&colon; global	!
!LO:TX:a:i:t=Adagio	!	!LO:TX:a:i:t=Adagio	!	!LO:TX:t=P:problem=brak partii w źródle	!LO:TX:a:i:t=Adagio	!
2D\	O	2f#/	O	2.ryy	2a/	O
!LO:TX:t=P:global:problem=caudy wszystkich nut w górę po lewej, caudy w dół po prawej	!	!LO:TX:t=P:global:problem=caudy wszystkich nut w górę po lewej, caudy w dół po prawej	!	!	!LO:TX:t=P:global:problem=caudy wszystkich nut w górę po lewej, caudy w dół po prawej	!
8D\	Pa-	8e#X/	Pa-	.	8g#X/	Pa-
8D\	-nie	8f#/	-nie	.	8a/	-nie,
=2	=2	=2	=2	=2	=2	=2
4D;>\	zbaw	4a;>/	zbaw	2.ryy	4dd;>\	zbaw
4r	.	4r	.	.	4r	.
4D\	bo	4a/	bo	.	4a/	bo
=3	=3	=3	=3	=3	=3	=3
4.D\	mnie	4.a/	mnie	2.ryy	4.ff#\	mnie
8D\	zwy-	8a/	zwy-	.	8ee\	zwy-
8D\	-cię-	8a/	-cię-	.	8dd\	-cię-
8AA/	-za	8a/	-ża	.	8ee\	-za
!LO:LB:g=original	!	!LO:LB:g=original	!	!	!LO:LB:g=original	!
=4	=4	=4	=4	=4	=4	=4
4AA/	wróg	4a/	wróg	2.ryy	4cc#\	wróg
4r	.	4r	.	.	4r	.
!	!	!	!	!	!LO:TX:b:t=P:problem=znak "+" pod kreską taktową	!
4AA/	Ty	4a/	Ty	.	4a/	Ty
=5	=5	=5	=5	=5	=5	=5
4.D\	ra-	4.a/	ra-	2.ryy	4.dd\	ra-
8D\	-tuj	8a/	-tuj	.	8a/	-tuj
8D\	mię	8a/	mię	.	8dd\	mię
8D\	boś	8cc#X\	boś	.	8ee\	boś
=6	=6	=6	=6	=6	=6	=6
4.D\	Ty	4.dd\	Ty	2.ryy	4.ff#\	Tu
8AA/	wszech-	8a/	wszech-	.	8ee\	wszech-
8AA/	-moc-	8a/	-moc-	.	8dd\	-moc-
8AA/	-ny	8a/	-ny	.	8ee\	-ny
!LO:LB:g=original	!	!LO:LB:g=original	!	!	!LO:LB:g=original	!
=7	=7	=7	=7	=7	=7	=7
4AA/	Bóg	4a/	Bóg	2.ryy	4cc#\	Bóg
8r	.	8r	.	.	8r	.
8AA/	Ku	8a/	Ku	.	8cc#\	Ku,
8GG#X/	To-	8b/	To-	.	8b\	To-
8AA/	-bie	8a/	-bie	.	8cc#\	-bie
=8	=8	=8	=8	=8	=8	=8
4.BB/	wzno-	4.g#X/	wzno-	2.ryy	4.dd\	wzno-
8AA/	-szę	8a/	-szę	.	8cc#\	-szę
8GG#X/	mą	8b/	mą	.	8b\	mą
!LO:TX:b:t=P:problem=znak "+" pod kreską taktową	!	!LO:TX:b:t=P:problem=znak "+" pod kreską taktową	!	!	!LO:TX:b:t=P:problem=znak "+" pod kreską taktową	!
8BB/	bła-	8g#/	bła-	.	8dd\	bła-
!LO:LB:g=original	!	!LO:LB:g=original	!	!	!LO:LB:g=original	!
=9	=9	=9	=9	=9	=9	=9
8.C#/	-gal-	8.a/	-gal-	2.ryy	8.ee\	-gal-
16BB/	-ną	16a/	-ną	.	16dd\	-ną
8AA/	dłoń,	8a/	dłoń	.	8cc#\	dłoń
8AA/	od	8a/	od	.	8cc#\	od
8GG#X/	prze-	8b/	prze-	.	8b\	prze-
8AA/	-ciw-	8a/	-ciw-	.	8cc#\	-ciw-
=10	=10	=10	=10	=10	=10	=10
4.BB/	-ni-	4.g#X/	-ni-	2.ryy	4.dd\	-ni-
8AA/	-ka	8a/	-ka	.	8cc#\	-ka
16GG#X/LL	me-	8b/	me-	.	(>16b\LL	me-
16AA/JJ	.	.	.	.	16cc#\JJ)	.
16BB/LL	-go	8b/	-go	.	(>16dd\LL	-go
16BB#X/JJ	.	.	.	.	16dd#X\JJ)	.
!LO:LB:g=original	!	!LO:PB:g=original	!	!	!LO:LB:g=original	!
=11	=11	=11	=11	=11	=11	=11
8.C#/	Ty	8.a/	Ty	2.ryy	8.ee\	Ty
16BB/	mię	16a/	mię	.	16dd\	mię
4AA/	chroń	4a/	chroń,	.	4cc#\	chron,
!LO:TX:b:t=P:problem=znak "*" pod kreską taktową	!	!LO:TX:b:t=P:problem=znak "X" przed kreską taktową	!	!	!LO:TX:b:t=P:problem=znak "X" przed kreską taktową	!
4r	.	4r	.	.	4r	.
=12	=12	=12	=12	=12	=12	=12
*	*	*2\right	*	*	*2\right	*
2AA/	O!	2cc#\	O!	2.ryy	2gg\	O!
8AA/	Pa-	8dd\	Pa-	.	8ff#\	Pa-
8AA/	-nie	8b#X\	-nie	.	8dd#X\	-nie
=13	=13	=13	=13	=13	=13	=13
4AA;>/	zbaw	4cc#;>\	zbaw	2.ryy	4ee;>\	zbaw
4r	.	4r	.	.	4r	.
!LO:TX:b:t=P:problem=znak "+" pod kreską taktową	!	!LO:TX:b:t=P:problem=znak "+" pod kreską taktową	!	!	!LO:TX:b:t=P:problem=znak "+" pod kreską taktową	!
4AA/	zlecz	4a/	zlecz	.	4a/	zlecz
!LO:LB:g=original	!	!LO:LB:g=original	!	!	!LO:LB:g=original	!
=14	=14	=14	=14	=14	=14	=14
4.D\	du-	4.a/	du-	2.ryy	4.ff#\	du-
8C#/	-szę	8a/	-szę	.	8ee\	-szę
8BB/	mo-	8a/	mo-	.	8dd\	mo-
8AA/	-ją	8a/	-ją	.	8cc#\	-ją
=15	=15	=15	=15	=15	=15	=15
4GG/	z ran	4b\	z­zran,	2.ryy	4b\	z ran,
8r	.	8r	.	.	8r	.
8GG/	bos	8b\	boś	.	8ee\	boś
8GG/	Ty	8b\	Ty	.	8gg\	Ty
8GG/	mym	8b\	mym	.	8ee\	mym,
!LO:PB:g=original	!	!LO:LB:g=original	!	!	!LO:LB:g=original	!
=16	=16	=16	=16	=16	=16	=16
8.AA/	Stwor-	8.a/	Stwór-	2.ryy	8.dd\	Stwór-
16AA/	-cą	16f#/	-cą	.	16a/	-cą
8AA/	boś	8f#/	boś	.	8a/	bos
8AA/	Ty	8a/	Ty	.	8dd\	Ty
8AA/	jest,	8cc#\	jest,	.	8ee\	jest,
8AA/	mój	8cc#\	mój	.	8ee#X\	moj
=17	=17	=17	=17	=17	=17	=17
4D\	Pan,	4dd\	Pan,	2.ryy	4ff#\	Pan
8r	.	8r	.	.	8r	.
8D\	zlecz	8ccn\	zlecz	.	8dd\	zlecz
8D\	du-	8cc\	du-	.	8ff#\	du-
!LO:TX:b:t=P:problem=znak "+" pod kreską taktową	!	!LO:TX:b:t=P:problem=znak "+" pod kreską taktową	!	!	!LO:TX:b:t=P:problem=znak "+" pod kreską taktową	!
8D\	-szę	8cc\	szę	.	8dd\	-szę
!LO:LB:g=original	!	!LO:LB:g=original	!	!	!LO:LB:g=original	!
=18	=18	=18	=18	=18	=18	=18
4GG/	mo-	4.b\	mo-	2.ryy	4.gg\	mo-
4GG/	-ją	.	.	.	.	.
.	.	8a/	-ją	.	8ff#\	-ją
8GG/	z ran,	16g/LL	zran,	.	16ee\LL	zran,
.	.	16f#/JJ	.	.	16dd\JJ	.
8GG#X/	boś	16e/LL	boś	.	16cc#\LL	boś
.	.	16e#X/JJ	.	.	16b\JJ	.
=19	=19	=19	=19	=19	=19	=19
2AA/	Ty	(<4f#/	Ty	2.ryy	(<4a/	Ty
.	.	16g/LL	.	.	16b/LL	.
.	.	16f#/	.	.	16a/	.
.	.	16e#X/	.	.	16g#X/	.
.	.	16f#/JJ)	.	.	16a/JJ)	.
4AA/	mój	4g/	mój	.	8b\L	moj
.	.	.	.	.	8cc#\J	.
!	!	!LO:LB:g=original	!	!	!LO:PB:g=original	!
=20	=20	=20	=20	=20	=20	=20
4D\	Pan,	4f#/	Pan,	2.ryy	4dd\	Pan,
4r	.	4r	.	.	4r	.
8D\	bos	8f#/	bos	.	8dd\	boś
8D\	Ty	8f#/	Ty	.	8a#X/	Ty
!LO:LB:g=original	!	!	!	!	!	!
=21	=21	=21	=21	=21	=21	=21
4D\	jest,	4g/	jest,	2.ryy	4b\	jest,
4r	.	4r	.	.	4r	.
8D\	boś	8g#X/	bos	.	8dd\	boś
8D\	Ty	8g#/	Ty	.	8g#X/	Ty
=22	=22	=22	=22	=22	=22	=22
4D\	jest,	4a/	jest,	2.ryy	4a/	jest,
8r	.	8r	.	.	8r	.
4D\	bos	4f#/	bos	.	4a/	boś
!LO:TX:b:t=P:problem=znak "+" pod kreską taktową	!	!LO:TX:b:t=P:problem=znak "+" pod kreską taktową	!	!	!LO:TX:b:t=P:problem=znak "+" pod kreską taktową	!
8D\	Ty	8f#/	Ty	.	8a/	Ty
!	!	!LO:LB:g=original	!	!	!LO:LB:g=original	!
=23	=23	=23	=23	=23	=23	=23
2AA/	jest,	(<4a/	jest,	2.ryy	(>4a/	jest,
.	.	4g#X/)	.	.	4b/)	.
4AA/	mój	4gn/	mój	.	4cc#\	mój
!LO:LB:g=original	!	!	!	!	!	!
=24	=24	=24	=24	=24	=24	=24
4D\	Pan	4f#/	Pan,	2.ryy	4dd\	Pan,
4r	.	4r	.	.	4r	.
8D\	bos	8f#/	bos	.	8dd\	boś
8D\	Ty	8f#/	Ty	.	8a#X/	Ty
=25	=25	=25	=25	=25	=25	=25
4D\	jest,	4g/	jest,	2.ryy	4b\	jest,
4r	.	4r	.	.	4r	.
8D\	boś	8g#X/	boś	.	8dd\	boś
8D\	Ty	8g#/	Ty	.	8g#X/	Ty
!	!	!LO:LB:g=original	!	!	!LO:LB:g=original	!
=26	=26	=26	=26	=26	=26	=26
4D\	jest,	4a/	jest,	2.ryy	4a/	jest,
8r	.	8r	.	.	8r	.
4D\	bos	4f#/	boś	.	4a/	boś
8D\	Ty	8f#/	Ty	.	8a/	Ty
!LO:LB:g=original	!	!	!	!	!	!
=27	=27	=27	=27	=27	=27	=27
2AA/	jest,	(>4a/	jest,	2.ryy	(>4a/	jest,
.	.	4g#X/)	.	.	4b/)	.
4AA/	mój	4gn/	mój	.	4cc#\	mój
=28	=28	=28	=28	=28	=28	=28
!	!	!	!	!	!LO:N:vis=2	!
2.DD;>/ 2.D	Pan,	2.f#;>/	Pan,	2.ryy	2.dd;>\	Pan,
==	==	==	==	==	==	==
*-	*-	*-	*-	*-	*-	*-
!!!system-decoration: [(s1,s2,s3,s4)]
!!!RDF**kern: > = above
!!!RDF**kern: < = below
!!!EED: Mateusz Mrugas
!!!EST: 2021-02-07
!!!ENC: Mateusz Solarz
!!!END: 2021-01-29
